X:1
T:Because It Is Christmas Time
T:Because It Is Christmas Time
T:Edmund Simon Lorenz
T:Virginia V. Whitter, 1900
T:Public Domain Courtesy of the Cyber Hymnal™
T:Public Domain Courtesy of the Cyber Hymnal™
C:Edmund Simon Lorenz
Z:Public Domain
Z:Courtesy of the Cyber Hymnal™
%%score 1 2 3
L:1/8
Q:1/4=70
M:4/8
K:Bb
V:1 treble 
V:2 treble 
V:3 bass 
V:1
|:"^Chorus" FFG>F | G/A/B/G/A z | ccd>c | c/B/d/B/F z | FFG>F | G/A/B/G<AB/ | cc/>c/dc | %7
w: ~ ~ ~ ~|~ ~ ~ ~ ~|~ ~ ~ ~|~ ~ ~ ~ ~|~ ~ ~ ~|~ ~ ~ ~ ~ ~|~ ~ ~ ~ ~|
w: Joy! joy! joy! So|hap- py now are we,|Sing! sing! sing! Our|hearts are full of glee,|Clap! clap! clap! so|joy- ous- ly and free, Be-|cause it is Christ- mas|
w: ~ ~ ~ ~|~ ~ ~ ~ ~|~ ~ ~ ~|~ ~ ~ ~ ~|~ ~ ~ ~|~ ~ ~ ~ ~ ~|~ ~ ~ ~ ~|
 B3 z!fine! || BBAG | GF d2 | dcc (B/A/) | BFF z | BBAG | GFd>d | d/c/c/B/AG | %15
w: ~|1.~Lit- tle child- ren,|joy- ful sing|Prais- es to your *|Sav- ior King;|Let the air with|mu- sic ring, This|hap- py, hap- py Christ- mas|
w: time.|2.~Christ- mas gifts for|great and small,|Christ the great- est *|gift of all;|May His bless- ings|on us fall This|mer- ry, mer- ry, Christ- mas|
w: ~|3.~Je- sus comes to|bring us peace,|From all pain and *|care re- lease;|Ne’er His reign on|earth shall cease, Be|glad for mer- ry Christ- mas|
 F3 z"^Play 3 times" :| x4!D.C.! |] %17
w: time.||
w: time.||
w: time.||
V:2
|: [DF][DF][DG]>[DG] | [DG]/[DA]/[DB]/[DA]/[EA] z | [EAc][EAc][EAd]>[EAc] | %3
 [Ec]/[DB]/[Fd]/[DB]/ [DF][CE]/[B,D]/ | [DF][DF][DG]>[DF] | [DG]/[DA]/[DB]/[DG]<[EA][DFB]/ | %6
 [Ec][Ec]/>[Ec]/ [Fd][Ec] | [DB]3 z || [GB][GB][FA][EG] | [EG][DF][Fd] z | %10
 [Bd][Ac][Ac] [DB]/[CA]/ | [DB][DF][DF] z | [GB][GB][FA][EG] | [EG][DF][Bd]>[Bd] | %14
 [Bd]/[Ac]/[Ac]/[GB]/ [FA][CG] | [A,F]3 z"^Play 3 times" :| x4 |] %17
V:3
|: B,,F, B,,F, | B,,F, C,F, | F,,C, F,,C, | B,,F, B,,F, | B,,F, B,,F, | B,,F, B,,F, | F,,F, F,,F, | %7
 B,,F,B,, z || C,B,E,B, | B,,B, B,,B, | F,,F, F,,F, | B,,F, B,,B, | C,B, C,B, | B,,B, B,,B, | %14
 C,C C,C,, | F,,F,F,, z"^Play 3 times" :| x4 |] %17

